Origami/24x24/apps/chrome-remote-desktop.svg

<svg width="24" height="24" version="1" xmlns="http://www.w3.org/2000/svg">
 <defs>
  <linearGradient id="linearGradient4088" x1="168" x2="160" y1="266" y2="270" gradientTransform="matrix(.29954 0 0 .29984 -35.936 -65.962)" gradientUnits="userSpaceOnUse">
   <stop offset="0"/>
   <stop stop-opacity="0" offset="1"/>
  </linearGradient>
 </defs>
 <rect transform="matrix(0,-1,-1,0,0,0)" x="-20" y="-22" width="16" height="20" rx="1" ry="1" style="fill:#5f7c8a"/>
 <rect transform="matrix(0,-1,-1,0,0,0)" x="-18" y="-20" width="12" height="16" rx="0" ry="0" style="fill:#7f96a1"/>
 <path d="m3 4c-0.554 0-1 0.446-1 1v0.5c0-0.554 0.446-1 1-1h18c0.554 0 1 0.446 1 1v-0.5c0-0.554-0.446-1-1-1h-18z" style="fill:#ffffff;opacity:.1"/>
 <path d="m2 19v0.5c0 0.554 0.446 1 1 1h18c0.554 0 1-0.446 1-1v-0.5c0 0.554-0.446 1-1 1h-18c-0.554 0-1-0.446-1-1z" style="opacity:.2"/>
 <path d="m11.991 6c-2.1019 0-3.9394 1.0776-5.0082 2.7079-0.0378 2.4431 1.5145 3.2941 2.6397 4.5731-0.207-0.383-0.3277-0.817-0.3277-1.284 0-1.495 1.2116-1.9327 2.6959-2.0989l5.354-0.5998c-0.983-1.9608-3.005-3.2982-5.354-3.2982z" style="fill:#dd4d3e"/>
 <path d="m6.8087 15.013c1.0508 1.822 2.902 2.876 4.8473 2.987 2.0738-1.1443 3.1731-2.5989 2.6362-4.5747-0.22735 0.37069-0.54259 0.69227-0.94679 0.92585-0.64228 0.3712-1.237-0.01895-1.899-0.19281-0.67112-0.17624-1.4078-0.14315-1.7837-0.79494l-2.6779-4.6424c-1.2049 1.8326-1.3508 4.2544-0.1763 6.2914z" style="fill:#109f5b"/>
 <path d="m17.196 14.996c1.0509-1.822 1.0374-3.9537 0.16118-5.6952l-5.2758 0.0021c0.4344 0.011754 0.87023 0.12424 1.2744 0.35783 0.69122 0.39948 0.62625 1.1888 0.77914 1.9103 0.1332 0.62853 0.55529 1.1732 0.20761 1.776l-2.6772 4.6415c2.1879 0.12833 4.3562-0.95619 5.5308-2.9927z" style="fill:#ffce41"/>
 <path d="m14.325 13.346-2.3346-1.3493-0.35046 5.9995z" style="fill:url(#linearGradient4088);opacity:.2"/>
 <rect transform="matrix(0,-1,-1,0,0,0)" x="-14.99" y="-14.69" width="5.397" height="5.392" rx="2.699" ry="2.696" style="opacity:.2"/>
 <rect transform="matrix(0,-1,-1,0,0,0)" x="-15" y="-15" width="6" height="6" rx="3" ry="3" style="fill:#ffffff"/>
 <rect transform="matrix(0,-1,-1,0,0,0)" x="-14" y="-14" width="4" height="4" rx="2" ry="2" style="fill:#4587f3"/>
</svg>

<svg xmlns="http://www.w3.org/2000/svg" width="24" height="24" version="1">
 <defs>
  <linearGradient id="linearGradient4088" x1="168" x2="160" y1="266" y2="270" gradientTransform="matrix(0.29954,0,0,0.29984,-35.936,-65.962)" gradientUnits="userSpaceOnUse">
   <stop offset="0"/>
   <stop offset="1" stop-opacity="0"/>
  </linearGradient>
 </defs>
 <rect style="fill:#325f78" width="16" height="20" x="-20" y="-22" rx="1" ry="1" transform="matrix(0,-1,-1,0,0,0)"/>
 <rect style="opacity:0.2" width="12" height="16" x="-18" y="-20" rx="0" ry="0" transform="matrix(0,-1,-1,0,0,0)"/>
 <path style="opacity:0.1;fill:#ffffff" d="M 3,4 C 2.446,4 2,4.446 2,5 l 0,0.5 c 0,-0.554 0.446,-1 1,-1 l 18,0 c 0.554,0 1,0.446 1,1 L 22,5 C 22,4.446 21.554,4 21,4 L 3,4 Z"/>
 <path style="opacity:0.2" d="m 2,19 0,0.5 c 0,0.554 0.446,1 1,1 l 18,0 c 0.554,0 1,-0.446 1,-1 L 22,19 c 0,0.554 -0.446,1 -1,1 L 3,20 C 2.446,20 2,19.554 2,19 Z"/>
 <path style="fill:#dd4d3e" d="M 11.991,6 C 9.8891,6 8.0516,7.0776 6.9828,8.7079 6.945,11.151 8.4973,12.002 9.6225,13.281 9.4155,12.898 9.2948,12.464 9.2948,11.997 c 0,-1.495 1.2116,-1.9327 2.6959,-2.0989 l 5.354,-0.5998 c -0.983,-1.9608 -3.005,-3.2982 -5.354,-3.2982 z"/>
 <path style="fill:#109f5b" d="m 6.8087,15.013 c 1.0508,1.822 2.902,2.876 4.8473,2.987 2.0738,-1.1443 3.1731,-2.5989 2.6362,-4.5747 -0.22735,0.37069 -0.54259,0.69227 -0.94679,0.92585 -0.64228,0.3712 -1.237,-0.01895 -1.899,-0.19281 -0.67112,-0.17624 -1.4078,-0.14315 -1.7837,-0.79494 L 6.98481,8.721 c -1.2049,1.8326 -1.3508,4.2544 -0.1763,6.2914 z"/>
 <path style="fill:#ffce41" d="m 17.196,14.996 c 1.0509,-1.822 1.0374,-3.9537 0.16118,-5.6952 l -5.2758,0.0021 c 0.4344,0.011754 0.87023,0.12424 1.2744,0.35783 0.69122,0.39948 0.62625,1.1888 0.77914,1.9103 0.1332,0.62853 0.55529,1.1732 0.20761,1.776 l -2.6772,4.6415 c 2.1879,0.12833 4.3562,-0.95619 5.5308,-2.9927 z"/>
 <path style="opacity:0.2;fill:url(#linearGradient4088)" d="m 14.325,13.346 -2.3346,-1.3493 -0.35046,5.9995 z"/>
 <rect style="opacity:0.2" width="5.397" height="5.392" x="-14.99" y="-14.69" rx="2.699" ry="2.696" transform="matrix(0,-1,-1,0,0,0)"/>
 <rect style="fill:#ffffff" width="6" height="6" x="-15" y="-15" rx="3" ry="3" transform="matrix(0,-1,-1,0,0,0)"/>
 <rect style="fill:#4587f3" width="4" height="4" x="-14" y="-14" rx="2" ry="2" transform="matrix(0,-1,-1,0,0,0)"/>
</svg>
